X:1
T:The Ashplant
R: reel
M:4/4
L:1/8
O:Trad. (6.10.2015/NS)
K:Edor
"Em" BE~E2 BAGA | BE~E2    ~G2GA |      BE~E2        BABd    | gedB "D" A2GA |
"Em" BE~E2 BAGA | BE~E2    ~G2GA |      ~B3A         (3Bcdef | gedB "D" A2GA ||
"Em" B2eB  fBeB | ~B2ed "D" BAGA | "Em" B2eB         fBef    | gedB "D" A2GA |
"Em" B2eB  fBeB | ~B2ed     BAGA | "Em" (3Bcdef "Bm" ~g2ga   | gedB     A2GA ||
